fs/draw_text_24_filled.svg

<svg viewBox="0 0 24 24" fill="none" xmlns="http://www.w3.org/2000/svg" height="1em" width="1em">
  <path d="M12.2437 13.1486H7.75902L10.0014 6.74427L12.2437 13.1486ZM12.944 15.1486L13.2715 16.0839L14.841 14.5144L11.0765 3.76267C10.7204 2.74576 9.28232 2.74579 8.92628 3.76267L4.05686 17.6701C3.87435 18.1914 4.14896 18.7619 4.67022 18.9444C5.19148 19.1269 5.76199 18.8523 5.9445 18.331L7.05876 15.1486H12.944ZM13.1978 17.5719L19.1003 11.6695C19.9929 10.7768 21.4401 10.7768 22.3327 11.6695C23.2253 12.5621 23.2253 14.0093 22.3327 14.9019L16.4303 20.8043C16.0861 21.1485 15.655 21.3926 15.1828 21.5106L13.3521 21.9683C13.3023 21.9808 13.2527 21.9896 13.2037 21.9951C12.6127 22.1991 10.224 22.569 9.37597 21.9072C8.80152 21.4588 8.91585 20.5728 9.15837 20.0887C9.19716 20.0113 9.13849 19.9098 9.05293 19.9232C8.39216 20.0264 7.80978 20.3738 7.22646 20.7219C6.44253 21.1896 5.65689 21.6583 4.67698 21.5366C3.69811 21.4149 3.2089 20.8108 2.96688 20.2822C2.86797 20.0662 3.14647 19.8809 3.35501 19.9948C3.82363 20.2505 4.4607 20.4906 4.98609 20.3744C5.36121 20.2914 5.8899 19.9174 6.48236 19.4983C7.54763 18.7448 8.81902 17.8454 9.7744 18.2298C10.6134 18.5674 11.2337 19.3809 10.8042 20.3432C10.7515 20.4612 10.8046 20.6065 10.9306 20.6355C11.3539 20.7325 11.7086 20.7018 12.0635 20.5313L12.4915 18.8194C12.6096 18.3472 12.8537 17.916 13.1978 17.5719Z" fill="#212121"/>
</svg>

<svg viewBox="0 0 24 24" fill="none" xmlns="http://www.w3.org/2000/svg" height="1em" width="1em">
  <path d="M12.244 13.149H7.759l2.242-6.405 2.243 6.405Zm.7 2 .327.935 1.57-1.57-3.764-10.751c-.357-1.017-1.795-1.017-2.15 0L4.056 17.67a1 1 0 1 0 1.887.661l1.115-3.182h5.885Zm.254 2.423L19.1 11.67a2.285 2.285 0 1 1 3.233 3.232l-5.903 5.902a2.684 2.684 0 0 1-1.247.707l-1.83.457a.985.985 0 0 1-.15.027c-.59.204-2.979.574-3.827-.088-.574-.448-.46-1.334-.218-1.818.04-.078-.02-.18-.105-.166-.66.103-1.243.45-1.827.799-.783.468-1.57.936-2.549.815-.979-.122-1.468-.726-1.71-1.255-.099-.216.18-.401.388-.287.469.255 1.106.496 1.631.38.375-.084.904-.458 1.496-.877 1.066-.753 2.337-1.653 3.292-1.268.84.337 1.46 1.15 1.03 2.113-.053.118 0 .264.127.293.423.097.778.066 1.133-.105l.428-1.712c.118-.472.362-.903.706-1.247Z" fill="#212121"/>
</svg>
